icons/src/svg/image_inactive.svg

<svg width="32" height="32" viewBox="0 0 32 32" fill="none" xmlns="http://www.w3.org/2000/svg">
<path d="M29.5304 25.2877C29.8234 24.9398 30 24.4905 30 24V8C30 6.89543 29.1046 6 28 6H10.2426L12.2426 8H28V18.5858L21.7071 12.2929C21.3166 11.9024 20.6834 11.9024 20.2929 12.2929L18.4142 14.1716L19.8284 15.5858L21 14.4142L28 21.4142V23.7574L29.5304 25.2877Z" fill="#0D0F13"/>
<path d="M15.5858 19.829L14.7071 20.7077C14.3166 21.0982 13.6834 21.0982 13.2929 20.7077L11 18.4148L5.41421 24.0006H19.7574L21.7574 26.0006H4C2.89543 26.0006 2 25.1052 2 24.0006V8.0006C2 7.51009 2.17658 7.06082 2.46965 6.71289L4 8.24324V22.5864L10.2929 16.2935C10.6834 15.903 11.3166 15.903 11.7071 16.2935L14 18.5864L14.1716 18.4148L15.5858 19.829Z" fill="#0D0F13"/>
<path fill-rule="evenodd" clip-rule="evenodd" d="M2.29289 2.29289C2.68342 1.90237 3.31658 1.90237 3.70711 2.29289L29.7071 28.2929C30.0976 28.6834 30.0976 29.3166 29.7071 29.7071C29.3166 30.0976 28.6834 30.0976 28.2929 29.7071L2.29289 3.70711C1.90237 3.31658 1.90237 2.68342 2.29289 2.29289Z" fill="#0D0F13"/>
</svg>

<svg fill="none" xmlns="http://www.w3.org/2000/svg" viewBox="0 0 32 32">
  <path d="M29.53 25.288c.293-.348.47-.797.47-1.288V8a2 2 0 0 0-2-2H10.243l2 2H28v10.586l-6.293-6.293a1 1 0 0 0-1.414 0l-1.879 1.879 1.414 1.414L21 14.414l7 7v2.343l1.53 1.53ZM15.586 19.828l-.879.88a1 1 0 0 1-1.414 0L11 18.413 5.414 24h14.343l2 2H4a2 2 0 0 1-2-2V8c0-.49.177-.94.47-1.288L4 8.242v14.344l6.293-6.293a1 1 0 0 1 1.414 0L14 18.586l.172-.172 1.414 1.414Z" fill="currentColor"/>
  <path fill-rule="evenodd" clip-rule="evenodd" d="M2.293 2.293a1 1 0 0 1 1.414 0l26 26a1 1 0 0 1-1.414 1.414l-26-26a1 1 0 0 1 0-1.414Z" fill="currentColor"/>
</svg>
